!!!!SEGMENT: pl-wtm--r-1519--001_stefani-jozef--naszych-pol-biednych-chat-andantino.krn
!!!cenid: 18xx:2238
!!!COM: Stefani, Józef
!!!COM-rismid: pe30024097
!!!CDT: 1800/04/16-1876/03/19
!!!CNT: Polish
!!!OPR: Naszych pól, biednych chat
!!!OTL: Andantino
!!!OMV: 001
!!!PDT:
!!!AGN:
!!!OMD:Andantino,
!!!SMS-siglum: PL-Wtm
!!!SMS-shelfmark: R 1519
!!!SMS-shelfwork: 001-001 M
!!!SMS-variant:
!!!SMS-altvar:
!!!NIFC-rismid: 1001120396
!!!URL-scan: http://repozytorium.nifc.pl/skany/pl-wtm-nut--r1519
!!!ONB-nifc: UWAGA: części: 1. Andantino, 2. Mazurek
**kern	**kern	**dynam	**kern	**text	**text	**dynam
*part3	*part2	*part2	*part1	*part1	*part1	*part1
*staff3	*staff2	*	*staff1	*staff1	*staff1	*
*Iforte	*Iforte	*	*Ivox	*	*	*
*I"Fortepian	*I"Fortepian	*	*I"Spiew	*	*	*
*clefF4	*clefG2	*	*clefG2	*	*	*
*k[b-e-]	*k[b-e-]	*	*k[b-e-]	*	*	*
*g:	*g:	*	*g:	*	*	*
*M3/4	*M3/4	*	*M3/4	*	*	*
*all\right	*all\right	*	*all\right	*	*	*
!	!	!LO:DY:rj	!	!	!	!
(16D\LL	(16d/LL	f	8r	.	.	.
32En\L	32en/L	.	.	.	.	.
32F#X\JJJ	32f#X/JJJ	.	.	.	.	.
=1	=1	=1	=1	=1	=1	=1
8.G\L)	8.g/L)	.	2.r	.	.	.
16F#X\Jk	16f#X/Jk	.	.	.	.	.
4G\	4g/	.	.	.	.	.
8r	8r	.	.	.	.	.
(16D\LL	(16d/LL	.	.	.	.	.
32En\L	32en/L	.	.	.	.	.
32F#\JJJ	32f#/JJJ	.	.	.	.	.
=2	=2	=2	=2	=2	=2	=2
8.G\L)	8.g/L)	.	2.r	.	.	.
16F#X\Jk	16f#X/Jk	.	.	.	.	.
4G\	4g/	.	.	.	.	.
8r	8r	.	.	.	.	.
(16D\LL	(16d/LL	.	.	.	.	.
32En\L	32en/L	.	.	.	.	.
32F#\JJJ	32f#/JJJ	.	.	.	.	.
=3	=3	=3	=3	=3	=3	=3
8.G\L)	8.g/L)	<	2.r	.	.	.
16F#X\Jk	16f#X/Jk	.	.	.	.	.
8G\L	8g/L	.	.	.	.	.
8D\	8a/ 8f#/	.	.	.	.	.
8G\	8b-/ 8g/	.	.	.	.	.
8E-\J	8cc/J 8g/	[[	.	.	.	.
!!LO:LB:g=original
=4	=4	=4	=4	=4	=4	=4
8D\	8dd/ 8f#X/	.	2.r	.	.	.
8r	8r	.	.	.	.	.
4D/ 4DD/	4d/	.	.	.	.	.
4r	8.r	.	.	.	.	.
!	!	!LO:DY:rj	!	!	!	!
.	16ddd\ 16bb-\	p	.	.	.	.
=5	=5	=5	=5	=5	=5	=5
8C/ 8CC/	8.eee-\L 8.ccc\	.	2.r	.	.	.
8A\ 8E-\ 8C\	.	.	.	.	.	.
!	!	!LO:DY:rj	!	!	!	!
.	16ddd\Jk 16bb-\	sf	.	.	.	.
*	*2\right	*	*	*	*	*
8A\L 8E-\ 8C\	2ccc\ 2aat\	.	.	.	.	.
8A\ 8E-\ 8C\	.	.	.	.	.	.
8A\ 8E-\ 8C\	.	.	.	.	.	.
8A\J 8E-\ 8C\	.	.	.	.	.	.
.	(16qqbbn\LL 16qqgg#X/	.	.	.	.	.
.	16qqccc\JJ 16qqaa/)	.	.	.	.	.
=6	=6	=6	=6	=6	=6	=6
8D/ 8DD/	8.ddd\L 8.bb-\	.	2.r	.	.	.
8B-\ 8G\ 8D\	.	.	.	.	.	.
.	16ccc\Jk 16aa\	sf	.	.	.	.
8B-\L 8G\ 8D\	2bb-\ 2gg\	.	.	.	.	.
8B-\ 8G\ 8D\	.	.	.	.	.	.
8B-\ 8G\ 8D\	.	.	.	.	.	.
8B-\J 8G\ 8D\	.	.	.	.	.	.
.	(16qqaa\LL 16qqff#X/	.	.	.	.	.
.	16qqbb-\JJ 16qqgg/)	.	.	.	.	.
=7	=7	=7	=7	=7	=7	=7
8D/ 8DD/	8.ccc\L 8.aa\	.	4r	.	.	.
8ryy	.	.	.	.	.	.
.	16bb-\Jk 16gg\	f	.	.	.	.
8d\ 8A\ 8F#X\ 8D\	8aa\ 8ff#X\	.	4r	.	.	.
8r	8r	.	.	.	.	.
!	!LO:TX:b:t=V&colon;S&colon;	!	!	!	!	!
4r	4r	.	8.r	.	.	.
.	.	.	16d/	.	.	.
!!LO:PB:g=original
=8	=8	=8	=8	=8	=8	=8
*	*	*	*2\right	*	*	*
4r	4r	f	2dd\	la	.	.
4d\ 4A\ 4F#X\ 4D\	4ddd\ 4aa\ 4ff#X\ 4dd\	.	.	.	.	.
4r	4r	.	8.r	.	.	.
.	.	.	16d/	la	.	.
=9	=9	=9	=9	=9	=9	=9
4r	4r	.	2dd\	la	.	.
4d\ 4B-\ 4F\ 4D\	4ddd\ 4bb-\ 4gg\ 4dd\	.	.	.	.	.
4r	4r	.	8.r	.	.	.
.	.	.	16d/	la	.	.
=10	=10	=10	=10	=10	=10	=10
4r	4r	.	8dd\	la	.	.
.	.	.	8r	.	.	.
8d\ 8A\ 8F#X\ 8D\	8ddd\ 8aa\ 8ff#X\ 8dd\	.	8dd;\	la-	.	.
8ryy	8ryy	.	(16cc#X/LL	.	.	.
.	.	.	16dd/	.	.	.
8r	8r	.	16cc#/	.	.	.
.	.	.	16dd/JJ)	.	.	.
4ryy	4ryy	.	(>8.ee-\L	.	.	.
.	.	.	16dd\Jk	.	.	.
4r;	4r;	.	16cc#\LL	.	.	.
.	.	.	16b-\	.	.	.
.	.	.	16a\)	.	.	.
.	.	.	16g\JJ	.	.	.
=11	=11	=11	=11	=11	=11	=11
*	*^	*	*	*	*	*
*2\right	*	*	*	*	*	*	*
!	!	!	!LO:DY:rj	!	!	!	!
2.D\ 2.DD\	2.d/	2c</ 2A</	fp	(>16f#X/LL	-la-	.	.
.	.	.	.	16a/JJ	.	.	.
.	.	.	.	4.d/)	.	.	.
.	.	4B-</ 4G</	.	(>16g/LL	.	.	.
.	.	.	.	16b-/J	-la	.	.
.	.	.	.	8d/J)	.	.	.
!!LO:LB:g=original
=12	=12	=12	=12	=12	=12	=12	=12
2.D\ 2.DD\	2.d/	2A</ 2F#X</	.	(16a/LL	la-	.	.
.	.	.	.	16cc/JJ	.	.	.
.	.	.	.	4.d/)	.	.	.
.	.	4B-</ 4G</	.	(16g/LL	-la	.	.
.	.	.	.	16b-/J	.	.	.
.	.	.	.	8d/J)	.	.	.
*	*v	*v	*	*	*	*	*
=13	=13	=13	=13	=13	=13	=13
4D\ 4DD\	4d/ 4A</ 4F#X</	.	(<16f#X/LL	la-	.	.
.	.	.	16a/JJ	.	.	.
.	.	.	4dd\)	.	.	.
4r	4r	.	.	.	.	.
.	.	.	16cc#X\LL	-la	.	.
.	.	.	16dd\JJ	.	.	.
.	.	.	(8qffn/	.	.	.
4r;	4r;	.	8.ee-X;\)	la	.	.
.	.	.	16dd\	la	.	.
=14	=14	=14	=14	=14	=14	=14
*^	*	*	*	*	*	*
*	*	*	*	*Xbrackettup	*	*	*
(4GG/	(4GG\	4r	.	12dd\L	Na-	.	.
.	.	.	.	12a\J	.	.	.
.	.	.	.	12b-\	-szych	.	.
8G/)	8GG\)	8g/ 8d/ 8B-/	.	2g/	pól	.	.
8r	8ryy	8r	.	.	.	.	.
4G\	4GG\	4g/ 4d/ 4B-/	.	.	.	.	.
=15	=15	=15	=15	=15	=15	=15	=15
!	!	!	!	!LO:TUP:b	!	!	!
(4GG/	4GG\	4r	.	12f#X/L	bie-	.	.
.	.	.	.	12g/J	.	.	.
.	.	.	.	12b-/	-dnych	.	.
8G/)	8GG\	8g/ 8d/ 8B-/	.	2dd\	chat	.	.
8r	8ryy	8r	.	.	.	.	.
4G\	4GG\	4g/ 4d/ 4B-/	.	.	.	.	.
*v	*v	*	*	*	*	*	*
!!LO:LB:g=original
=16	=16	=16	=16	=16	=16	=16
4.C/ 4.CC/	4r	.	12a/L	Czys-	.	.
.	.	.	12cc/J	.	.	.
.	.	.	12b-/	tych	.	.
.	8a/ 8e-/ 8A/	.	4a/	wód	.	.
8r	8r	.	.	.	.	.
4C#X/ 4CC#X/	4g/ 4en/ 4A/	.	4g/	stru-	.	.
=17	=17	=17	=17	=17	=17	=17
!	!	!	!LO:TX:t=P:problem:klamra łukowa	!	!	!
!	!	!	!LO:TUP:b	!	!	!
4.D/ 4.DD/	4r	.	12g/L	-mie-	.	.
.	.	.	12f#X/	.	.	.
.	.	.	12a/J	.	.	.
!	!	!	!LO:TX:t=P:problem:przekreślona przednutka	!	!	!
.	8f#X/ 8d/ 8A/	.	(2d/	-nie	.	.
8r	8r	.	.	.	.	.
4D/ 4DD/	4f#/ 4d/ 4A/	.	.	.	.	.
.	.	.	8qdd/)	.	.	.
=18	=18	=18	=18	=18	=18	=18
*^	*	*	*	*	*	*
(4GG/	4GG\	4r	.	(12dd\L	Mi-	.	.
.	.	.	.	12a\J)	.	.	.
.	.	.	.	12b-'\	-mo	.	.
8G/)	8GG\	8g/ 8d/ 8B-/	.	2g/	ból	.	.
8r	8ryy	8r	.	.	.	.	.
4G\	4GG\	4g/ 4d/ 4B-/	.	.	.	.	.
=19	=19	=19	=19	=19	=19	=19	=19
(4GG/	4GG\	4r	.	(12f#X/L	mi-	.	.
.	.	.	.	12g/J)	.	.	.
.	.	.	.	12b-'/	-mo	.	.
8G/)	8GG\	8g/ 8d/ 8B-/	.	2dd\	strat	.	.
8r	8ryy	8r	.	.	.	.	.
4G\	4GG\	4g/ 4d/ 4B-/	.	.	.	.	.
*v	*v	*	*	*	*	*	*
!!LO:LB:g=original
=20	=20	=20	=20	=20	=20	=20
!	!	!	!LO:TX:t=P:problem:klamra łukowa	!	!	!
4.AA/	4r	.	12a/L	za	.	.
.	.	.	12g#X/J	.	.	.
.	.	.	12a/	świat	.	.
.	8f#X/ 8d/ 8A/	.	4.ff#X\	ca-	.	.
8r	8r	.	.	.	.	.
4AA/	4f#/ 4d/ 4A/	.	.	.	.	.
.	.	.	8dd\	-ły	.	.
=21	=21	=21	=21	=21	=21	=21
4.AA/	4r	.	8.een\	nie	.	.
.	.	.	16ff#X\	za-	.	.
.	8g/ 8en/ 8A/	.	4cc#X\	-mie-	.	.
8r	8r	.	.	.	.	.
4D/ 4DD/	4f#X/ 4d/ 4A/	.	4dd\	-nie	.	.
=22	=22	=22	=22	=22	=22	=22
.	(8qbn/	.	.	.	.	.
!	!LO:TUP:b	!	!	!	!	!
8D/ 8DD/	12a/L	.	2.r	.	.	.
.	12g#X/	.	.	.	.	.
8r	.	.	.	.	.	.
.	12a/J)	.	.	.	.	.
8A\ 8F#X\ 8D\	4.ff#X\	.	.	.	.	.
8r	.	.	.	.	.	.
4A\ 4F#\ 4D\	.	.	.	.	.	.
.	8dd\	.	.	.	.	.
=23	=23	=23	=23	=23	=23	=23
!	!LO:TX:t=P:problem:klamra łukowa	!	!	!	!	!
8A\ 8G\ 8C#X\ 8AA\	12een\L	.	4r	.	.	.
.	12gg\	.	.	.	.	.
8r	.	.	.	.	.	.
.	12ff#X\J	.	.	.	.	.
4A\ 4F#X\ 4D\	4dd\	.	4r	.	.	.
4r	4r	.	[4dd\	Bo	.	.
!!LO:PB:g=original
=24	=24	=24	=24	=24	=24	=24
8D/ 8DD/	8r	.	8.dd\]	.	.	.
8r	8f#X/ 8d/ 8A/	.	.	.	.	.
.	.	.	16ee-\	tu	.	.
8D/ 8DD/	8r	.	8.dd\	ma-	.	.
8r	8f#/ 8d/ 8A/	.	.	.	.	.
.	.	.	16cc\	-tka	.	.
8D/ 8DD/	8r	.	8.a/	mię	.	.
8r	8f#/ 8d/ 8A/	.	.	.	.	.
.	.	.	16b-/	tu-	.	.
=25	=25	=25	=25	=25	=25	=25
8G\ 8GG\	8r	.	(8.g/L	-li-	.	.
8r	8g/ 8d/ 8B-/	.	.	.	.	.
.	.	.	16b-/Jk)	.	.	.
8G\ 8GG\	8r	.	4b-/	-ła	.	.
8r	8g/ 8d/ 8B-/	.	.	.	.	.
8G\ 8GG\	8r	.	4r	.	.	.
8r	8g/ 8d/ 8B-/	.	.	.	.	.
=26	=26	=26	=26	=26	=26	=26
(>8qGG/	.	.	.	.	.	.
8.G\L)	8.g/L	.	8.g/	Gdym	.	.
16F#X\Jk	16f#X/Jk	.	16f#X/	dzień	.	.
8.G\L	8.g/L	.	8.g/	uj-	.	.
16D\Jk	16a/Jk 16f#/	.	16a/	-rzał	.	.
8.G\L	8.b-/L 8.g/	.	8.b-\	pier-	.	.
16E-\Jk	16cc/Jk 16g/	.	16cc\	-wszy	.	.
=27	=27	=27	=27	=27	=27	=27
8D\	8dd/ 8f#X/	.	2dd\	raz	.	.
8r	8r	.	.	.	.	<
4D/ 4DD/	4d/	.	.	.	.	.
4r	4r	.	8.cc#X\	Tu	.	.
.	.	.	16dd\	ro-	.	[[
!!LO:LB:g=original
=28	=28	=28	=28	=28	=28	=28
4C/ 4CC/	4ffn/ 4a/ 4f^/	.	4..ffn\	-dzi-	.	.
8.r	8.r	.	.	.	.	.
16C/ 16CC/	16ee-X/ 16a/ 16f/	.	16ee-X\	-ców	.	.
8.BB-/L 8.BBB-/	8.dd/L 8.b-/ 8.f/	.	8.dd\	mych	.	.
16AA/Jk 16AAA/	16cc/Jk 16f#X/ 16d/	.	16cc\	mo-	.	.
=29	=29	=29	=29	=29	=29	=29
!	!	!LO:HP:a	!	!	!	!
(32GGG/LLL	(32b-/LLL 32g/	>	4b-\	-gi-	.	.
32GG/	32d/	.	.	.	.	.
32GGG/	32b-/ 32g/	.	.	.	.	.
32GG/	32d/	.	.	.	.	.
32GGG/	32b-/ 32g/	.	.	.	.	.
32GG/	32d/	.	.	.	.	.
32GGG/	32b-/ 32g/	.	.	.	.	.
32GG/JJJ	32d/JJJ)	.	.	.	.	.
8GG/ 8GGG/)	8g/ 8d/ 8B-/	]	8g/	-ła	.	.
8r	8r	.	8r	.	.	.
4r	4r	.	8.g/	Któż-	.	.
.	.	.	16a/	-by	.	.
=30	=30	=30	=30	=30	=30	=30
4r	4r	<	4.b-/	iej	.	.
8G/ 8GG/	8b-/ 8g/ 8d/	.	.	.	.	.
8r	8r	[	8g/	nie	.	.
8E-/ 8EE-/	8cc#X/ 8g/ 8c#X/	.	8.gg;\	ko-	.	.
8r;	8r;	.	.	.	.	.
.	.	.	16cc#X\	-chał	.	.
!!LO:LB:g=original
=31	=31	=31	=31	=31	=31	=31
[2.D/ [2.AA/ [2.DD/	(8f#X/L 8d/	.	2dd\	[[nie!]]	z nas!	.
.	8A/	.	.	.	.	.
.	8f#/ 8d/	.	.	.	.	.
.	8A/J	.	.	.	.	.
.	8g/L 8en/	.	12een\L	Któż-	.	.
.	.	.	12bn\J	.	.	.
.	8A/J)	.	.	.	.	.
.	.	.	12cc#X\	-by	.	.
=32	=32	=32	=32	=32	=32	=32
2.D/] 2.AA/] 2.DD/]	(8f#X/L 8d/	.	4..dd\	iej	.	.
.	8A/	.	.	.	.	.
.	8f#/ 8d/	.	.	.	.	.
.	8A/J	.	.	.	.	.
.	.	.	16ff#X\	nie	.	.
.	8g/L 8c#X/	.	8.een\	ko-	.	.
.	8A/J)	.	.	.	.	.
.	.	.	16a/	-chał	.	.
=33	=33	=33	=33	=33	=33	=33
8D/L 8AA/ 8DD/	4f#X/ 4d/ 4A/	.	4.dd\	[[nie?]]?!	z nas	.
8A/J	.	.	.	.	.	.
(8F#X\L 8D\	4r	.	.	.	.	.
8A\	.	.	8r	.	.	.
!	!LO:SIC:v:n=2:s=8een	!	!	!	!	!
!	!LO:TUP:a	!	!	!	!	!
8G\ 8En\ 8D\	12eeen\L 12ee-\	.	8.a/	Któż-	.	.
.	12bbn\ 12bn\	.	.	.	.	.
8A\J)	.	.	.	.	.	.
.	12ccc#X\J 12cc#X\	.	.	.	.	.
.	.	.	16a/	-by	.	.
=34	=34	=34	=34	=34	=34	=34
(8F#X\L 8D\	(4ddd\ 4dd\	.	4.a/	iej	.	.
8A\	.	.	.	.	.	.
8F#\ 8D\	8aa\)	.	.	.	.	.
8A\J)	16r	.	16r	.	.	.
.	16fff#X\KL 16ff#X\	.	16ff#X\	nie	.	.
(8G\L 8En\ 8D\	8.eeen\ 8.een\	.	8.een\	ko-	.	.
8A\J)	.	.	.	.	.	.
.	16aa\Jk 16a\	.	16a/	-chał	.	.
!!LO:LB:g=original
=35	=35	=35	=35	=35	=35	=35
4F#X\ 4D\	4ddd\ 4dd\	.	2dd\	z nas	.	.
1ryy	1ryy	.	.	.	.	.
.	.	.	8a/L	.	.	.
.	.	.	8cc/	.	.	.
.	.	.	8f#X/	.	.	.
.	.	.	8a/J	.	.	.
.	.	.	4d;/	.	.	.
2ryy	2ryy	.	8c#X/L	.	.	.
.	.	.	8d/	.	.	.
.	.	.	8f#X/	.	.	.
.	.	.	8a/	.	.	.
4r;	4r;	.	8cc/	.	.	.
.	.	.	8dd/	.	.	.
1ryy	1ryy	.	8ff#X/	.	.	.
.	.	.	8aa/J	.	.	.
.	.	.	8.ccc\L	.	.	.
.	.	.	16aa\Jk	.	.	.
.	.	.	8aa\L	.	.	.
.	.	.	8gg\	.	.	.
.	.	.	8ff#X\	.	.	.
.	.	.	8een\J	.	.	.
4ryy	4ryy	.	4dd;\	.	.	.
4r;	4r;	.	4cc#X;\	.	.	.
!	!LO:TX:b:t=V&colon;S&colon;	!	!	!	!	!
4ryy	4ryy	.	4ccn;\	.	.	.
==	==	==	==	==	==	==
*-	*-	*-	*-	*-	*-	*-
!!!system-decoration: s1{(s2,s3)}
!!!RDF**kern: > = above
!!!RDF**kern: < = below
!!!EED: Andrzej Borzym
!!!EST: 2021-06-12
!!!ENC: Andrzej Gręziak
!!!END: 2021-05-20
